X:1
T:Ung doulx regard
T:Ung doulx regard
T:Pierre de Manchicourt
C:Pierre de Manchicourt
%%score [ 1 2 [ 3 4 ] ]
L:1/8
Q:1/4=80
M:2/2
K:C
V:1 treble nm="Superius" snm="S"
V:2 treble nm="Altus" snm="A"
V:3 treble-8 nm="Tenor 1" snm="T 1"
V:4 treble-8 nm="Tenor 2" snm="T 2"
V:1
 c6 B2 |: A4 A2 A2 | c4 B2 c2- | cB AB cd e2- | e2 d2 c4 | B4 z2 G2- | G2 A2 B2 c2 | A2 G2 c2 d2 | %8
w: Ung doulx|re- gard, ung|par- ler a-||* * mou-|reulx, puis|_ ung bai- ser|re- ceu, puis ung|
w: |trois biens que|font l'a- mant|_ _ _ _ _ _ _|* * heu-|reulx, et|_ par- ve- nir|au but, et par-|
 e2 f2 d2 c2 | g3 f e2 d2- | dc c4 B2 | c4 z2 c2- |1[M:2/4] c2 B2 :|2[M:2/2] c8 || z2 c2 c2 B2 | %15
w: bai- ser re- ceu|à _ _ la|_ plai- san- *|ce, sont|_ les|ce,|O, quel plai-|
w: ve- nir au but|de _ _ joy-|* ys- san- *|||||
 c2 G2 c2 d2 | e2 dc e2 d2 | c3 B AG B2- | B2 A2 B2 AG | A2 G4 F2 | G4 z2 G2 | G2 G2 cd ec | %22
w: sir, ma- da- m'et|sou- ve- * nan- *||||ce, si|lung des trois _ _ _|
w: |||||||
 d2 e2 c2 d2 | e2 A2 c2 d2 | c3 B A4- | A4 z2 c2- |: c2 B2 A4 | A2 A2 c4 | B2 c3 B AB | cd e4 d2 | %30
w: _ me don- nez|seul- * * *|* le- ment,|_ car|_ ung seul|bien re- ceu|à sa- _ _ _|_ _ plai- *|
w: ||||||||
 c4 B4 | z2 G4 A2 | B2 c2 BA G2 | c2 d2 e2 f2 | d2 c2 g3 f | e2 d3 d c2- | c2 B2 c4 |1 %37
w: san- ce|vault mieulx|que trois, _ _ _|vault _ mieulx que|trois hors de _|_ con- * ten|_ te ment,|
w: |||||||
[M:2/4] z2 c2- :|2[M:2/2] c2 B2 c4- || c8 |] %40
w: car|* te- ment.|_|
w: |||
V:2
 G6 G2 |: E4 F2 F2 | G6 G2 | A6 GF | EF G4 F2 | G4 C2 D2 | E2 F2 G3 E | F2 E2 C2 F2 | %8
w: des trois|me don- nez|seul- le-|ment, * *|* * * car|ung seul bien|re- cu à *|* la plai- san-|
w: |trois biens que|font l'a-|mant _ _|_ _ _ heu-|reulx, et par-|ve- nir au _|_ but de joy-|
 E2 A2 G2 E2- | E2 D2 A2 G2 | A2 F2 G4 | E4 G4- |1[M:2/4] G2 G2 :|2[M:2/2] z2 A2 A2 G2 || %14
w: ce vault * *|||mieulx que|_ trois|hors de con-|
w: ys- san- * *||* * ce,|_ _|||
 A2 G2 G4 | G4 z2 G2 | G2 F2 G2 D2 | EF GE F2 D2 | E2 F2 D2 E2 | FEDC D2 C2 | E4 D4 | %21
w: ten- te- ment,|car te-|ment. Ung doulx *||||re- gard,|
w: |||||||
 E2 E2 E2 G2- | G2 G2 F4 | E2 F2 G2 A2- | A2 G2 F4 | E4 z2 G2- |: G2 G2 E4 | F2 F2 G4- | %28
w: ung par- ler a-|_ mou- reulx,|puis * * *|* * un|bai- ser|_ re- ceu|à la plai-|
w: |||||||
 G2 G2 A4- | A2 GF EF G2- | G2 F2 G4 | C2 D2 E2 F2 | G3 E F2 E2 | C2 F2 E2 A2 | G2 E4 D2 | %35
w: _ san- ce,|_ sont * * * *|* les ce,|O, quel plai- sir|ma- _ _ da-|me, et * *||
w: |||||||
 A2 G2 A2 F2 | G4 E4 |1[M:2/4] z2 (G2 :|2[M:2/2] G4) E4- || E8 |] %40
w: |sou- ve-|nan-|ce, si|_|
w: |||||
V:3
 e6 d2 |: c4 c2 c2 | e4 d2 e2 | c2 f4 ed | c2 d2 e2 c2 | d2 e2 f2 g2 | e2 dc d2 e2 | d2 G2 A2 B2 | %8
w: lung des|trois me don-|nez seul- le-||* * * ment,|car ung seul bien|re- _ _ _ ceu|à la plai- san-|
w: |trois biens que|font l'a- mant|_ _ _ _|* * * heu-|reulx, et par- ve-|nir _ _ _ au|but de joy- ys-|
 c2 A2 B2 c2- | c2 B2 c2 d2 | e2 c2 d4 | c4 z2 e2- |1[M:2/4] e2 d2 :|2[M:2/2] c4 z2 c2 || %14
w: ce * * *|||vault mieulx|_ que|trois hors|
w: san- * * *||||||
 c2 e2 e2 d2 | e3 f g4 | z2 c2 c2 B2 | c2 G2 d3 c | BA c2 B2 c2- | c2 B2 A4 | B2 c4 B2 | c4 G2 G2 | %22
w: de con- ten- te-|ment, * car|te- ment. Ung|doulx * * *|||re- gard, ung|par- ler a-|
w: ||||||||
 G2 c4 B2 | c3 d e2 f2- | f2 e2 d4 | c4 z2 e2- |: e2 d2 c4 | c2 c2 e4 | d2 e2 c2 f2- | %29
w: mou- reulx, puis||* * ung|bai- ser|_ re- ceu|à la plai-|san- ce, sont les|
w: |||||||
 f2 e2 c2 d2 | e2 c2 d2 e2 | f2 g2 e2 dc | d2 e2 d2 G2 | A2 B2 c2 A2 | B2 c4 B2 | c2 d2 e2 c2 | %36
w: |* * ce, O,|quel plai- sir, _ _|_ ma- da- m'et|sou- * * *|||
w: |||||||
 d4 c4 |1[M:2/4] z2 (e2 :|2[M:2/2] d4) c4- || c8 |] %40
w: ve- nan-|ce,|O, quel|_|
w: ||||
V:4
 c6 G2 |: A4 F2 F2 | CDEF G2 C2 | F3 G AB c2- | c2 B2 A4 | G2 z G A2 B2 | c2 A2 G2 C2 | %7
w: plai- sir,|ma- da- m'et|sou- * * * ve- nan-||* * ce,|si lung des trois|me don- nez seul-|
w: |trois biens que|font _ _ _ _ l'a-|mant _ _ _ _|_ _ heu-|reulx, et par- ve-|nir au but de|
 D2 E2 F2 D2 | C2 F2 G2 A2 | G4 A2 B2 | c2 A2 G4 | C4 z2 c2- |1[M:2/4] c2 G2 :|2 %13
w: le- ment, car *||||ung seul|_ bien|
w: joy- ys- san- *||||||
[M:2/2] C2 F2 F2 E2 || F2 C2 G4 | C2 c2 c2 B2 | c2 A2 G4 | C4 z2 G2 | G2 F2 G2 C2 | F2 G2 D2 F2 | %20
w: re- ceu à la|plai- san- ce|vault mieulx que trois||hors de|con- ten- te- ment,|car te- ment *|
w: |||||||
 E2 C2 G4 | z2 C2 C2 C2 | G2 E2 F2 D2 | C2 F2 E2 D2 | F2 C2 DE FG | A4 z2 c2- |: c2 G2 A4 | %27
w: |||||||
w: |||||||
 F2 F2 CDEF | G2 C2 F3 G | AB c4 B2 | A4 G2 z G | A2 B2 c2 BA | G2 C2 D2 E2 | F2 ED C2 F2 | %34
w: |||||||
w: |||||||
 G2 A2 G4 | A2 B2 c2 A2 | G4 C4 |1[M:2/4] z2 (c2 :|2[M:2/2] G4) C4- || C8 |] %40
w: ||||||
w: ||||||

